X: 20369
T: John Clifford's
R: polka
M: 2/4
K: Gmajor
d>c df|B3 B|c/B/A/B/ ce|A3 A|
B/c/d ef|g3 f/g/|1 fe fd|a3:|2 fe ac|d3||
dA/d/ f/e/d/B/|Af fe/f/|Be e^d/e/|Ad dA|
dc/d/ f/e/d/B/|Af fe/f/|Be ec|d3:|
G>F GB|E2 E2|F/E/D/E/ FA|D2 D2|
E/F/G AB|c2 c2|1 BA BG|d2 d:|2 BA dF|G3||

